X:1
T: Jojo's
C: R-44
M: C|
Z:
R: reel
K: Em
"Em"EDEF GFGA| Bdef gfed| "D"AGFE DEFG| AFdf edAF|
"Em"EDEF GFGA| Bdef gfga| "G"bagf "A"gfed| "B7"BAGF "Em"E4 :|
|:\
"Em"Be2f edBA| Bdef gfed| "D"Ad2e dAFA| defg agfd|
"Em"Be2f edBA| Bdef gfga| "G"bgaf "A"gfed| "B7"Be2d "Em"e2 z2 :|
%
